Images/SVG/close.svg

<!-- Generated by IcoMoon.io -->
<svg version="1.1" xmlns="http://www.w3.org/2000/svg" width="20" height="20" viewBox="0 0 20 20">
<title>close</title>
<path d="M10 8.586l-7.071-7.071-1.414 1.414 7.071 7.071-7.071 7.071 1.414 1.414 7.071-7.071 7.071 7.071 1.414-1.414-7.071-7.071 7.071-7.071-1.414-1.414-7.071 7.071z"></path>
</svg>

<svg width="20" height="20" viewBox="0 0 20 20" fill="none" xmlns="http://www.w3.org/2000/svg">
<path d="M10 8.586L2.929 1.515L1.515 2.929L8.586 10L1.515 17.071L2.929 18.485L10 11.414L17.071 18.485L18.485 17.071L11.414 10L18.485 2.929L17.071 1.515L10 8.586V8.586Z" fill="white"/>
</svg>
